images/3234009.svg

<?xml version="1.0" encoding="UTF-8"?>
<svg xmlns="http://www.w3.org/2000/svg" xmlns:xlink="http://www.w3.org/1999/xlink" width="300pt" height="300pt" viewBox="0 0 300 300" version="1.1">
<defs>
<g>
<symbol overflow="visible" id="glyph0-0">
<path style="stroke:none;" d="M 0.453125 1.59375 L 0.453125 -6.34375 L 4.953125 -6.34375 L 4.953125 1.59375 Z M 0.953125 1.09375 L 4.453125 1.09375 L 4.453125 -5.84375 L 0.953125 -5.84375 Z M 0.953125 1.09375 "/>
</symbol>
<symbol overflow="visible" id="glyph0-1">
<path style="stroke:none;" d="M 0.890625 -6.5625 L 2.078125 -6.5625 L 4.984375 -1.078125 L 4.984375 -6.5625 L 5.84375 -6.5625 L 5.84375 0 L 4.65625 0 L 1.75 -5.484375 L 1.75 0 L 0.890625 0 Z M 0.890625 -6.5625 "/>
</symbol>
<symbol overflow="visible" id="glyph0-2">
<path style="stroke:none;" d="M 3.546875 -5.953125 C 2.898438 -5.953125 2.382812 -5.710938 2 -5.234375 C 1.625 -4.753906 1.4375 -4.101562 1.4375 -3.28125 C 1.4375 -2.445312 1.625 -1.789062 2 -1.3125 C 2.382812 -0.832031 2.898438 -0.59375 3.546875 -0.59375 C 4.191406 -0.59375 4.703125 -0.832031 5.078125 -1.3125 C 5.453125 -1.789062 5.640625 -2.445312 5.640625 -3.28125 C 5.640625 -4.101562 5.453125 -4.753906 5.078125 -5.234375 C 4.703125 -5.710938 4.191406 -5.953125 3.546875 -5.953125 Z M 3.546875 -6.6875 C 4.460938 -6.6875 5.195312 -6.375 5.75 -5.75 C 6.300781 -5.132812 6.578125 -4.3125 6.578125 -3.28125 C 6.578125 -2.238281 6.300781 -1.410156 5.75 -0.796875 C 5.195312 -0.179688 4.460938 0.125 3.546875 0.125 C 2.617188 0.125 1.878906 -0.179688 1.328125 -0.796875 C 0.773438 -1.410156 0.5 -2.238281 0.5 -3.28125 C 0.5 -4.3125 0.773438 -5.132812 1.328125 -5.75 C 1.878906 -6.375 2.617188 -6.6875 3.546875 -6.6875 Z M 3.546875 -6.6875 "/>
</symbol>
</g>
</defs>
<g id="surface49881">
<rect x="0" y="0" width="300" height="300" style="fill:rgb(100%,100%,100%);fill-opacity:1;stroke:none;"/>
<path style="fill:none;stroke-width:1.2;stroke-linecap:butt;stroke-linejoin:miter;stroke:rgb(0%,0%,0%);stroke-opacity:1;stroke-miterlimit:10;" d="M 69.238281 234.261719 L 81.714844 213.445312 "/>
<path style="fill:none;stroke-width:1.2;stroke-linecap:butt;stroke-linejoin:miter;stroke:rgb(0%,0%,0%);stroke-opacity:1;stroke-miterlimit:10;" d="M 81.714844 213.445312 L 93.847656 213.644531 "/>
<path style="fill:none;stroke-width:1.2;stroke-linecap:butt;stroke-linejoin:miter;stroke:rgb(0%,0%,100%);stroke-opacity:1;stroke-miterlimit:10;" d="M 93.847656 213.644531 L 105.980469 213.84375 "/>
<path style="fill:none;stroke-width:1.2;stroke-linecap:butt;stroke-linejoin:miter;stroke:rgb(0%,0%,0%);stroke-opacity:1;stroke-miterlimit:10;" d="M 84.234375 207.773438 L 93.941406 207.933594 "/>
<path style="fill:none;stroke-width:1.2;stroke-linecap:butt;stroke-linejoin:miter;stroke:rgb(0%,0%,100%);stroke-opacity:1;stroke-miterlimit:10;" d="M 93.941406 207.933594 L 103.648438 208.09375 "/>
<path style="fill:none;stroke-width:1.2;stroke-linecap:butt;stroke-linejoin:miter;stroke:rgb(0%,0%,0%);stroke-opacity:1;stroke-miterlimit:10;" d="M 69.925781 192.230469 L 81.714844 213.445312 "/>
<path style="fill:none;stroke-width:1.2;stroke-linecap:butt;stroke-linejoin:miter;stroke:rgb(0%,0%,100%);stroke-opacity:1;stroke-miterlimit:10;" d="M 105.980469 213.84375 L 112.21875 203.433594 "/>
<path style="fill:none;stroke-width:1.2;stroke-linecap:butt;stroke-linejoin:miter;stroke:rgb(0%,0%,0%);stroke-opacity:1;stroke-miterlimit:10;" d="M 112.21875 203.433594 L 118.460938 193.027344 "/>
<path style=" stroke:none;fill-rule:nonzero;fill:rgb(100%,100%,100%);fill-opacity:1;" d="M 102.980469 208.34375 L 109.980469 208.34375 L 109.980469 219.34375 L 102.980469 219.34375 Z M 102.980469 208.34375 "/>
<g style="fill:rgb(0%,0%,100%);fill-opacity:1;">
  <use xlink:href="#glyph0-1" x="102.980469" y="217.006836"/>
</g>
<path style="fill:none;stroke-width:1.2;stroke-linecap:butt;stroke-linejoin:miter;stroke:rgb(0%,0%,0%);stroke-opacity:1;stroke-miterlimit:10;" d="M 118.460938 193.027344 L 142.726562 193.425781 "/>
<path style="fill:none;stroke-width:1.2;stroke-linecap:butt;stroke-linejoin:miter;stroke:rgb(0%,0%,0%);stroke-opacity:1;stroke-miterlimit:10;" d="M 120.980469 187.355469 L 140.394531 187.675781 "/>
<path style="fill:none;stroke-width:1.2;stroke-linecap:butt;stroke-linejoin:miter;stroke:rgb(0%,0%,0%);stroke-opacity:1;stroke-miterlimit:10;" d="M 106.671875 171.8125 L 118.460938 193.027344 "/>
<path style="fill:none;stroke-width:1.2;stroke-linecap:butt;stroke-linejoin:miter;stroke:rgb(0%,0%,0%);stroke-opacity:1;stroke-miterlimit:10;" d="M 142.726562 193.425781 L 148.964844 183.015625 "/>
<path style="fill:none;stroke-width:1.2;stroke-linecap:butt;stroke-linejoin:miter;stroke:rgb(0%,0%,100%);stroke-opacity:1;stroke-miterlimit:10;" d="M 148.964844 183.015625 L 155.203125 172.609375 "/>
<path style="fill:none;stroke-width:1.2;stroke-linecap:butt;stroke-linejoin:miter;stroke:rgb(0%,0%,100%);stroke-opacity:1;stroke-miterlimit:10;" d="M 155.203125 172.609375 L 149.308594 162 "/>
<path style="fill:none;stroke-width:1.2;stroke-linecap:butt;stroke-linejoin:miter;stroke:rgb(0%,0%,0%);stroke-opacity:1;stroke-miterlimit:10;" d="M 149.308594 162 L 143.417969 151.394531 "/>
<path style="fill:none;stroke-width:1.2;stroke-linecap:butt;stroke-linejoin:miter;stroke:rgb(0%,0%,100%);stroke-opacity:1;stroke-miterlimit:10;" d="M 149.035156 173.261719 L 144.320312 164.773438 "/>
<path style="fill:none;stroke-width:1.2;stroke-linecap:butt;stroke-linejoin:miter;stroke:rgb(0%,0%,0%);stroke-opacity:1;stroke-miterlimit:10;" d="M 144.320312 164.773438 L 139.601562 156.289062 "/>
<path style=" stroke:none;fill-rule:nonzero;fill:rgb(100%,100%,100%);fill-opacity:1;" d="M 152.203125 167.109375 L 159.203125 167.109375 L 159.203125 178.109375 L 152.203125 178.109375 Z M 152.203125 167.109375 "/>
<g style="fill:rgb(0%,0%,100%);fill-opacity:1;">
  <use xlink:href="#glyph0-1" x="152.203125" y="175.772461"/>
</g>
<path style="fill:none;stroke-width:1.2;stroke-linecap:butt;stroke-linejoin:miter;stroke:rgb(0%,0%,0%);stroke-opacity:1;stroke-miterlimit:10;" d="M 143.417969 151.394531 L 131.28125 151.195312 "/>
<path style="fill:none;stroke-width:1.2;stroke-linecap:butt;stroke-linejoin:miter;stroke:rgb(0%,0%,100%);stroke-opacity:1;stroke-miterlimit:10;" d="M 131.28125 151.195312 L 119.148438 150.996094 "/>
<path style="fill:none;stroke-width:1.2;stroke-linecap:butt;stroke-linejoin:miter;stroke:rgb(0%,0%,0%);stroke-opacity:1;stroke-miterlimit:10;" d="M 143.417969 151.394531 L 149.65625 140.984375 "/>
<path style="fill:none;stroke-width:1.2;stroke-linecap:butt;stroke-linejoin:miter;stroke:rgb(100%,0%,0%);stroke-opacity:1;stroke-miterlimit:10;" d="M 149.65625 140.984375 L 155.894531 130.578125 "/>
<path style="fill:none;stroke-width:1.2;stroke-linecap:butt;stroke-linejoin:miter;stroke:rgb(0%,0%,100%);stroke-opacity:1;stroke-miterlimit:10;" d="M 119.148438 150.996094 L 112.910156 161.402344 "/>
<path style="fill:none;stroke-width:1.2;stroke-linecap:butt;stroke-linejoin:miter;stroke:rgb(0%,0%,0%);stroke-opacity:1;stroke-miterlimit:10;" d="M 112.910156 161.402344 L 106.671875 171.8125 "/>
<path style="fill:none;stroke-width:1.2;stroke-linecap:butt;stroke-linejoin:miter;stroke:rgb(0%,0%,100%);stroke-opacity:1;stroke-miterlimit:10;" d="M 122.800781 156.011719 L 117.808594 164.339844 "/>
<path style="fill:none;stroke-width:1.2;stroke-linecap:butt;stroke-linejoin:miter;stroke:rgb(0%,0%,0%);stroke-opacity:1;stroke-miterlimit:10;" d="M 117.808594 164.339844 L 112.816406 172.667969 "/>
<path style=" stroke:none;fill-rule:nonzero;fill:rgb(100%,100%,100%);fill-opacity:1;" d="M 116.148438 145.496094 L 123.148438 145.496094 L 123.148438 156.496094 L 116.148438 156.496094 Z M 116.148438 145.496094 "/>
<g style="fill:rgb(0%,0%,100%);fill-opacity:1;">
  <use xlink:href="#glyph0-1" x="116.148438" y="154.15918"/>
</g>
<path style="fill:none;stroke-width:1.2;stroke-linecap:butt;stroke-linejoin:miter;stroke:rgb(0%,0%,0%);stroke-opacity:1;stroke-miterlimit:10;" d="M 106.671875 171.8125 L 94.539062 171.613281 "/>
<path style="fill:none;stroke-width:1.2;stroke-linecap:butt;stroke-linejoin:miter;stroke:rgb(0%,0%,100%);stroke-opacity:1;stroke-miterlimit:10;" d="M 94.539062 171.613281 L 82.402344 171.414062 "/>
<path style="fill:none;stroke-width:1.2;stroke-linecap:butt;stroke-linejoin:miter;stroke:rgb(0%,0%,100%);stroke-opacity:1;stroke-miterlimit:10;" d="M 82.402344 171.414062 L 76.164062 181.820312 "/>
<path style="fill:none;stroke-width:1.2;stroke-linecap:butt;stroke-linejoin:miter;stroke:rgb(0%,0%,0%);stroke-opacity:1;stroke-miterlimit:10;" d="M 76.164062 181.820312 L 69.925781 192.230469 "/>
<path style="fill:none;stroke-width:1.2;stroke-linecap:butt;stroke-linejoin:miter;stroke:rgb(0%,0%,100%);stroke-opacity:1;stroke-miterlimit:10;" d="M 82.402344 171.414062 L 76.511719 160.804688 "/>
<path style="fill:none;stroke-width:1.2;stroke-linecap:butt;stroke-linejoin:miter;stroke:rgb(0%,0%,0%);stroke-opacity:1;stroke-miterlimit:10;" d="M 76.511719 160.804688 L 70.617188 150.199219 "/>
<path style=" stroke:none;fill-rule:nonzero;fill:rgb(100%,100%,100%);fill-opacity:1;" d="M 79.402344 165.914062 L 86.402344 165.914062 L 86.402344 176.914062 L 79.402344 176.914062 Z M 79.402344 165.914062 "/>
<g style="fill:rgb(0%,0%,100%);fill-opacity:1;">
  <use xlink:href="#glyph0-1" x="79.402344" y="174.577148"/>
</g>
<path style="fill:none;stroke-width:1.2;stroke-linecap:butt;stroke-linejoin:miter;stroke:rgb(0%,0%,0%);stroke-opacity:1;stroke-miterlimit:10;" d="M 69.972656 189.375 L 57.839844 189.175781 "/>
<path style="fill:none;stroke-width:1.2;stroke-linecap:butt;stroke-linejoin:miter;stroke:rgb(100%,0%,0%);stroke-opacity:1;stroke-miterlimit:10;" d="M 57.839844 189.175781 L 45.707031 188.976562 "/>
<path style="fill:none;stroke-width:1.2;stroke-linecap:butt;stroke-linejoin:miter;stroke:rgb(0%,0%,0%);stroke-opacity:1;stroke-miterlimit:10;" d="M 69.878906 195.085938 L 57.746094 194.886719 "/>
<path style="fill:none;stroke-width:1.2;stroke-linecap:butt;stroke-linejoin:miter;stroke:rgb(100%,0%,0%);stroke-opacity:1;stroke-miterlimit:10;" d="M 57.746094 194.886719 L 45.613281 194.6875 "/>
<path style=" stroke:none;fill-rule:nonzero;fill:rgb(100%,100%,100%);fill-opacity:1;" d="M 37.660156 186.332031 L 45.660156 186.332031 L 45.660156 197.332031 L 37.660156 197.332031 Z M 37.660156 186.332031 "/>
<g style="fill:rgb(100%,0%,0%);fill-opacity:1;">
  <use xlink:href="#glyph0-2" x="37.660156" y="194.995117"/>
</g>
<path style="fill:none;stroke-width:1.2;stroke-linecap:butt;stroke-linejoin:miter;stroke:rgb(0%,0%,0%);stroke-opacity:1;stroke-miterlimit:10;" d="M 70.617188 150.199219 L 83.09375 129.382812 "/>
<path style="fill:none;stroke-width:1.2;stroke-linecap:butt;stroke-linejoin:miter;stroke:rgb(0%,0%,0%);stroke-opacity:1;stroke-miterlimit:10;" d="M 83.09375 129.382812 L 71.304688 108.167969 "/>
<path style="fill:none;stroke-width:1.2;stroke-linecap:butt;stroke-linejoin:miter;stroke:rgb(0%,0%,0%);stroke-opacity:1;stroke-miterlimit:10;" d="M 71.304688 108.167969 L 83.785156 87.351562 "/>
<path style="fill:none;stroke-width:1.2;stroke-linecap:butt;stroke-linejoin:miter;stroke:rgb(0%,0%,0%);stroke-opacity:1;stroke-miterlimit:10;" d="M 67.65625 103.148438 L 77.636719 86.496094 "/>
<path style="fill:none;stroke-width:1.2;stroke-linecap:butt;stroke-linejoin:miter;stroke:rgb(0%,0%,0%);stroke-opacity:1;stroke-miterlimit:10;" d="M 47.039062 107.769531 L 71.304688 108.167969 "/>
<path style="fill:none;stroke-width:1.2;stroke-linecap:butt;stroke-linejoin:miter;stroke:rgb(0%,0%,0%);stroke-opacity:1;stroke-miterlimit:10;" d="M 83.785156 87.351562 L 71.996094 66.136719 "/>
<path style="fill:none;stroke-width:1.2;stroke-linecap:butt;stroke-linejoin:miter;stroke:rgb(0%,0%,0%);stroke-opacity:1;stroke-miterlimit:10;" d="M 71.996094 66.136719 L 47.726562 65.738281 "/>
<path style="fill:none;stroke-width:1.2;stroke-linecap:butt;stroke-linejoin:miter;stroke:rgb(0%,0%,0%);stroke-opacity:1;stroke-miterlimit:10;" d="M 69.476562 71.804688 L 50.0625 71.488281 "/>
<path style="fill:none;stroke-width:1.2;stroke-linecap:butt;stroke-linejoin:miter;stroke:rgb(0%,0%,0%);stroke-opacity:1;stroke-miterlimit:10;" d="M 47.726562 65.738281 L 35.25 86.554688 "/>
<path style="fill:none;stroke-width:1.2;stroke-linecap:butt;stroke-linejoin:miter;stroke:rgb(0%,0%,0%);stroke-opacity:1;stroke-miterlimit:10;" d="M 35.25 86.554688 L 47.039062 107.769531 "/>
<path style="fill:none;stroke-width:1.2;stroke-linecap:butt;stroke-linejoin:miter;stroke:rgb(0%,0%,0%);stroke-opacity:1;stroke-miterlimit:10;" d="M 41.421875 85.902344 L 50.851562 102.875 "/>
<path style="fill:none;stroke-width:1.2;stroke-linecap:butt;stroke-linejoin:miter;stroke:rgb(100%,0%,0%);stroke-opacity:1;stroke-miterlimit:10;" d="M 155.894531 130.578125 L 168.027344 130.777344 "/>
<path style="fill:none;stroke-width:1.2;stroke-linecap:butt;stroke-linejoin:miter;stroke:rgb(0%,0%,0%);stroke-opacity:1;stroke-miterlimit:10;" d="M 168.027344 130.777344 L 180.160156 130.976562 "/>
<path style=" stroke:none;fill-rule:nonzero;fill:rgb(100%,100%,100%);fill-opacity:1;" d="M 151.894531 125.078125 L 159.894531 125.078125 L 159.894531 136.078125 L 151.894531 136.078125 Z M 151.894531 125.078125 "/>
<g style="fill:rgb(100%,0%,0%);fill-opacity:1;">
  <use xlink:href="#glyph0-2" x="151.894531" y="133.741211"/>
</g>
<path style="fill:none;stroke-width:1.2;stroke-linecap:butt;stroke-linejoin:miter;stroke:rgb(0%,0%,0%);stroke-opacity:1;stroke-miterlimit:10;" d="M 180.160156 130.976562 L 191.949219 152.191406 "/>
<path style="fill:none;stroke-width:1.2;stroke-linecap:butt;stroke-linejoin:miter;stroke:rgb(0%,0%,0%);stroke-opacity:1;stroke-miterlimit:10;" d="M 186.332031 130.324219 L 195.761719 147.292969 "/>
<path style="fill:none;stroke-width:1.2;stroke-linecap:butt;stroke-linejoin:miter;stroke:rgb(0%,0%,0%);stroke-opacity:1;stroke-miterlimit:10;" d="M 192.640625 110.160156 L 180.160156 130.976562 "/>
<path style="fill:none;stroke-width:1.2;stroke-linecap:butt;stroke-linejoin:miter;stroke:rgb(0%,0%,0%);stroke-opacity:1;stroke-miterlimit:10;" d="M 191.949219 152.191406 L 216.214844 152.589844 "/>
<path style="fill:none;stroke-width:1.2;stroke-linecap:butt;stroke-linejoin:miter;stroke:rgb(0%,0%,0%);stroke-opacity:1;stroke-miterlimit:10;" d="M 216.214844 152.589844 L 228.695312 131.773438 "/>
<path style="fill:none;stroke-width:1.2;stroke-linecap:butt;stroke-linejoin:miter;stroke:rgb(0%,0%,0%);stroke-opacity:1;stroke-miterlimit:10;" d="M 212.566406 147.570312 L 222.546875 130.917969 "/>
<path style="fill:none;stroke-width:1.2;stroke-linecap:butt;stroke-linejoin:miter;stroke:rgb(0%,0%,0%);stroke-opacity:1;stroke-miterlimit:10;" d="M 228.695312 131.773438 L 216.90625 110.558594 "/>
<path style="fill:none;stroke-width:1.2;stroke-linecap:butt;stroke-linejoin:miter;stroke:rgb(0%,0%,0%);stroke-opacity:1;stroke-miterlimit:10;" d="M 228.695312 131.773438 L 240.828125 131.972656 "/>
<path style="fill:none;stroke-width:1.2;stroke-linecap:butt;stroke-linejoin:miter;stroke:rgb(100%,0%,0%);stroke-opacity:1;stroke-miterlimit:10;" d="M 240.828125 131.972656 L 252.960938 132.167969 "/>
<path style="fill:none;stroke-width:1.2;stroke-linecap:butt;stroke-linejoin:miter;stroke:rgb(0%,0%,0%);stroke-opacity:1;stroke-miterlimit:10;" d="M 216.90625 110.558594 L 192.640625 110.160156 "/>
<path style="fill:none;stroke-width:1.2;stroke-linecap:butt;stroke-linejoin:miter;stroke:rgb(0%,0%,0%);stroke-opacity:1;stroke-miterlimit:10;" d="M 214.386719 116.226562 L 194.972656 115.910156 "/>
<path style="fill:none;stroke-width:1.2;stroke-linecap:butt;stroke-linejoin:miter;stroke:rgb(100%,0%,0%);stroke-opacity:1;stroke-miterlimit:10;" d="M 252.960938 132.167969 L 258.855469 142.777344 "/>
<path style="fill:none;stroke-width:1.2;stroke-linecap:butt;stroke-linejoin:miter;stroke:rgb(0%,0%,0%);stroke-opacity:1;stroke-miterlimit:10;" d="M 258.855469 142.777344 L 264.75 153.382812 "/>
<path style=" stroke:none;fill-rule:nonzero;fill:rgb(100%,100%,100%);fill-opacity:1;" d="M 248.960938 126.667969 L 256.960938 126.667969 L 256.960938 137.667969 L 248.960938 137.667969 Z M 248.960938 126.667969 "/>
<g style="fill:rgb(100%,0%,0%);fill-opacity:1;">
  <use xlink:href="#glyph0-2" x="248.960938" y="135.331055"/>
</g>
</g>
</svg>

<svg xmlns="http://www.w3.org/2000/svg" xmlns:xlink="http://www.w3.org/1999/xlink" width="300pt" height="300pt" viewBox="0 0 300 300"><defs><symbol overflow="visible"><path d="M.453 1.594v-7.938h4.5v7.938zm.5-.5h3.5v-6.938h-3.5zm0 0"/></symbol><symbol overflow="visible" id="a"><path d="M.89-6.563H2.08l2.906 5.485v-5.484h.86V0H4.656L1.75-5.484V0H.89zm0 0"/></symbol><symbol overflow="visible" id="b"><path d="M3.547-5.953c-.65 0-1.164.242-1.547.72-.375.48-.563 1.13-.563 1.952 0 .835.188 1.49.563 1.967.383.48.898.72 1.547.72.644 0 1.156-.24 1.53-.72.376-.476.564-1.132.564-1.968 0-.822-.187-1.474-.562-1.954-.375-.477-.887-.72-1.53-.72zm0-.734c.914 0 1.648.312 2.203.937.55.617.828 1.438.828 2.47 0 1.042-.277 1.87-.828 2.483-.555.617-1.29.922-2.203.922-.93 0-1.668-.305-2.22-.922C.774-1.41.5-2.237.5-3.28c0-1.033.273-1.853.828-2.47.55-.625 1.29-.938 2.22-.938zm0 0"/></symbol></defs><g><path fill="#fff" d="M0 0h300v300H0z"/><path d="M69.238 234.262l12.477-20.817M81.715 213.445l12.133.2" stroke-width="1.2" stroke="#000" stroke-miterlimit="10" fill="none"/><path d="M93.848 213.645l12.132.2" stroke-width="1.2" stroke="#00f" stroke-miterlimit="10" fill="none"/><path d="M84.234 207.773l9.707.16" stroke-width="1.2" stroke="#000" stroke-miterlimit="10" fill="none"/><path d="M93.94 207.934l9.708.16" stroke-width="1.2" stroke="#00f" stroke-miterlimit="10" fill="none"/><path d="M69.926 192.23l11.79 21.215" stroke-width="1.2" stroke="#000" stroke-miterlimit="10" fill="none"/><path d="M105.98 213.844l6.24-10.41" stroke-width="1.2" stroke="#00f" stroke-miterlimit="10" fill="none"/><path d="M112.22 203.434l6.24-10.407" stroke-width="1.2" stroke="#000" stroke-miterlimit="10" fill="none"/><path d="M102.98 208.344h7v11h-7zm0 0" fill="#fff"/><use xlink:href="#a" x="102.98" y="217.007" fill="#00f"/><path d="M118.46 193.027l24.267.4M120.98 187.355l19.415.32M106.672 171.813l11.79 21.214M142.727 193.426l6.238-10.41" stroke-width="1.2" stroke="#000" stroke-miterlimit="10" fill="none"/><path d="M148.965 183.016l6.238-10.407M155.203 172.61L149.31 162" stroke-width="1.2" stroke="#00f" stroke-miterlimit="10" fill="none"/><path d="M149.31 162l-5.892-10.605" stroke-width="1.2" stroke="#000" stroke-miterlimit="10" fill="none"/><path d="M149.035 173.262l-4.715-8.49" stroke-width="1.2" stroke="#00f" stroke-miterlimit="10" fill="none"/><path d="M144.32 164.773l-4.718-8.484" stroke-width="1.2" stroke="#000" stroke-miterlimit="10" fill="none"/><path d="M152.203 167.11h7v11h-7zm0 0" fill="#fff"/><use xlink:href="#a" x="152.203" y="175.772" fill="#00f"/><path d="M143.418 151.395l-12.137-.2" stroke-width="1.2" stroke="#000" stroke-miterlimit="10" fill="none"/><path d="M131.28 151.195l-12.132-.2" stroke-width="1.2" stroke="#00f" stroke-miterlimit="10" fill="none"/><path d="M143.418 151.395l6.238-10.41" stroke-width="1.2" stroke="#000" stroke-miterlimit="10" fill="none"/><path d="M149.656 140.984l6.24-10.406" stroke-width="1.2" stroke="#f00" stroke-miterlimit="10" fill="none"/><path d="M119.148 150.996l-6.238 10.406" stroke-width="1.2" stroke="#00f" stroke-miterlimit="10" fill="none"/><path d="M112.91 161.402l-6.238 10.41" stroke-width="1.2" stroke="#000" stroke-miterlimit="10" fill="none"/><path d="M122.8 156.012l-4.99 8.328" stroke-width="1.2" stroke="#00f" stroke-miterlimit="10" fill="none"/><path d="M117.81 164.34l-4.994 8.328" stroke-width="1.2" stroke="#000" stroke-miterlimit="10" fill="none"/><path d="M116.148 145.496h7v11h-7zm0 0" fill="#fff"/><use xlink:href="#a" x="116.148" y="154.159" fill="#00f"/><path d="M106.672 171.813l-12.133-.2" stroke-width="1.2" stroke="#000" stroke-miterlimit="10" fill="none"/><path d="M94.54 171.613l-12.138-.2M82.402 171.414l-6.238 10.406" stroke-width="1.2" stroke="#00f" stroke-miterlimit="10" fill="none"/><path d="M76.164 181.82l-6.238 10.41" stroke-width="1.2" stroke="#000" stroke-miterlimit="10" fill="none"/><path d="M82.402 171.414l-5.89-10.61" stroke-width="1.2" stroke="#00f" stroke-miterlimit="10" fill="none"/><path d="M76.512 160.805L70.617 150.2" stroke-width="1.2" stroke="#000" stroke-miterlimit="10" fill="none"/><path d="M79.402 165.914h7v11h-7zm0 0" fill="#fff"/><use xlink:href="#a" x="79.402" y="174.577" fill="#00f"/><path d="M69.973 189.375l-12.133-.2" stroke-width="1.2" stroke="#000" stroke-miterlimit="10" fill="none"/><path d="M57.84 189.176l-12.133-.2" stroke-width="1.2" stroke="#f00" stroke-miterlimit="10" fill="none"/><path d="M69.88 195.086l-12.134-.2" stroke-width="1.2" stroke="#000" stroke-miterlimit="10" fill="none"/><path d="M57.746 194.887l-12.133-.2" stroke-width="1.2" stroke="#f00" stroke-miterlimit="10" fill="none"/><path d="M37.66 186.332h8v11h-8zm0 0" fill="#fff"/><use xlink:href="#b" x="37.66" y="194.995" fill="#f00"/><path d="M70.617 150.2l12.477-20.817M83.094 129.383l-11.79-21.215M71.305 108.168l12.48-20.816M67.656 103.148l9.98-16.652M47.04 107.77l24.265.398M83.785 87.352l-11.79-21.215M71.996 66.137l-24.27-.4M69.477 71.805l-19.415-.317M47.727 65.738L35.25 86.555M35.25 86.555l11.79 21.215M41.422 85.902l9.43 16.973" stroke-width="1.2" stroke="#000" stroke-miterlimit="10" fill="none"/><path d="M155.895 130.578l12.132.2" stroke-width="1.2" stroke="#f00" stroke-miterlimit="10" fill="none"/><path d="M168.027 130.777l12.133.2" stroke-width="1.2" stroke="#000" stroke-miterlimit="10" fill="none"/><path d="M151.895 125.078h8v11h-8zm0 0" fill="#fff"/><use xlink:href="#b" x="151.895" y="133.741" fill="#f00"/><path d="M180.16 130.977l11.79 21.214M186.332 130.324l9.43 16.97M192.64 110.16l-12.48 20.817M191.95 152.19l24.265.4M216.215 152.59l12.48-20.817M212.566 147.57l9.98-16.652M228.695 131.773l-11.79-21.214M228.695 131.773l12.133.2" stroke-width="1.2" stroke="#000" stroke-miterlimit="10" fill="none"/><path d="M240.828 131.973l12.133.195" stroke-width="1.2" stroke="#f00" stroke-miterlimit="10" fill="none"/><path d="M216.906 110.56l-24.265-.4M214.387 116.227l-19.414-.317" stroke-width="1.2" stroke="#000" stroke-miterlimit="10" fill="none"/><path d="M252.96 132.168l5.895 10.61" stroke-width="1.2" stroke="#f00" stroke-miterlimit="10" fill="none"/><path d="M258.855 142.777l5.895 10.606" stroke-width="1.2" stroke="#000" stroke-miterlimit="10" fill="none"/><path d="M248.96 126.668h8v11h-8zm0 0" fill="#fff"/><use xlink:href="#b" x="248.961" y="135.331" fill="#f00"/></g></svg>
